resources/material/system-report.svg

<svg width="16" height="16" fill="#f4f4f7" fill-opacity="context-fill-opacity">
  <path d="M13.727 1.636H2.273C1.57 1.636 1 2.206 1 2.909v7.636c0 .703.57 1.273 1.273 1.273h4.455v1.273h-.637a.636.636 0 0 0 0 1.272h3.818a.636.636 0 0 0 0-1.272h-.636v-1.273h4.455c.703 0 1.273-.57 1.273-1.273V2.909a1.275 1.275 0 0 0-1.274-1.273zM8.778 9.452a.389.389 0 0 1-.389.389h-.778a.389.389 0 0 1-.389-.389v-.779c0-.215.174-.389.389-.389h.778c.215 0 .389.174.389.389v.779zm0-2.335a.389.389 0 0 1-.389.389h-.778a.389.389 0 0 1-.389-.389V4.003c0-.215.174-.389.389-.389h.778c.215 0 .389.174.389.389v3.114z"/>
</svg>

<svg xmlns="http://www.w3.org/2000/svg" width="16" height="16" viewBox="0 0 16 16" fill="context-fill"
	fill-opacity="context-fill-opacity">
	<path
		d="M13.727,1.636H2.273C1.57,1.636,1,2.206,1,2.909v7.636c0,0.703,0.57,1.273,1.273,1.273h4.455v1.273H6.091
	c-0.351,0-0.636,0.285-0.636,0.636c0,0.351,0.285,0.636,0.636,0.636h3.818c0.351,0,0.636-0.285,0.636-0.636
	c0-0.351-0.285-0.636-0.636-0.636H9.273v-1.273h4.455c0.703,0,1.273-0.57,1.273-1.273V2.909C15,2.206,14.43,1.636,13.727,1.636z
	 M8.778,9.452c0,0.215-0.174,0.389-0.389,0.389H7.611c-0.215,0-0.389-0.174-0.389-0.389V8.673c0-0.215,0.174-0.389,0.389-0.389
	h0.778c0.215,0,0.389,0.174,0.389,0.389V9.452z M8.778,7.117c0,0.215-0.174,0.389-0.389,0.389H7.611
	c-0.215,0-0.389-0.174-0.389-0.389V4.003c0-0.215,0.174-0.389,0.389-0.389h0.778c0.215,0,0.389,0.174,0.389,0.389V7.117z" />
</svg>
